X: 16774
T: Harlequin, The
R: hornpipe
M: 4/4
K: Gmajor
|:Bc|dBgd edBA|~G3A BGDC|B,DGA BdcB|BAAG A2Bc|
dBgd edBA|GFGA BGDC|B,DGE CEAc|(3BAG (3AGF G2:|
|:Bc|dgBg dgBB|dBGd gdBG|AGAB cBce|(3agf (3gfe d2 Bc|
~B3c dAFA|(3efg fa gfdc|BGBd ecAF|G2GF G2:|

